assets/i18n/b-es-dk.svg

<?xml version="1.0" encoding="UTF-8"?>
<svg width="232px" height="24px" viewBox="0 0 232 24" version="1.1" xmlns="http://www.w3.org/2000/svg" xmlns:xlink="http://www.w3.org/1999/xlink">
    <!-- Generator: Sketch 51.3 (57544) - http://www.bohemiancoding.com/sketch -->
    <title>SwG-Spanish Copy-Black</title>
    <desc>Created with Sketch.</desc>
    <defs></defs>
    <g id="SwG-Spanish-Copy" stroke="none" stroke-width="1" fill="none" fill-rule="evenodd">
        <path d="M6.302,19.368 C5.10599402,19.368 3.93683905,18.9770039 2.7945,18.195 C1.65216095,17.4129961 0.90466843,16.3166737 0.552,14.906 L2.484,14.124 C2.71400115,15.0286712 3.18549644,15.7914969 3.8985,16.4125 C4.61150356,17.0335031 5.41266222,17.344 6.302,17.344 C7.2220046,17.344 8.00783007,17.1025024 8.6595,16.6195 C9.31116992,16.1364976 9.637,15.4810041 9.637,14.653 C9.637,13.7329954 9.31116992,13.0238358 8.6595,12.5255 C8.00783007,12.0271642 6.97667372,11.5633355 5.566,11.134 C4.10932605,10.6739977 3.00533709,10.079837 2.254,9.3515 C1.50266291,8.62316303 1.127,7.69167234 1.127,6.557 C1.127,5.37632743 1.59466199,4.34900437 2.53,3.475 C3.46533801,2.60099563 4.68432582,2.164 6.187,2.164 C7.58234031,2.164 8.71699563,2.51282984 9.591,3.2105 C10.4650044,3.90817015 11.032332,4.67099586 11.293,5.499 L9.361,6.304 C9.22299931,5.78266406 8.88183606,5.29966889 8.3375,4.855 C7.79316394,4.41033111 7.09167096,4.188 6.233,4.188 C5.42032927,4.188 4.72650287,4.41416441 4.1515,4.8665 C3.57649712,5.3188356 3.289,5.88232996 3.289,6.557 C3.289,7.1703364 3.55349735,7.68783123 4.0825,8.1095 C4.61150264,8.53116878 5.38966153,8.91066498 6.417,9.248 C7.22967073,9.50866797 7.90816395,9.76166544 8.4525,10.007 C8.99683605,10.2523346 9.54883054,10.5781646 10.1085,10.9845 C10.6681695,11.3908354 11.0898319,11.8968303 11.3735,12.5025 C11.6571681,13.1081697 11.799,13.8096627 11.799,14.607 C11.799,15.4043373 11.6341683,16.1173302 11.3045,16.746 C10.9748317,17.3746698 10.5378361,17.8729982 9.9935,18.241 C9.44916394,18.6090018 8.86266981,18.8888324 8.234,19.0805 C7.60533019,19.2721676 6.96133663,19.368 6.302,19.368 Z M23.69575,19 L21.67175,19 L21.67175,17.436 L21.57975,17.436 C21.2577484,17.9726693 20.7670866,18.4288315 20.10775,18.8045 C19.4484134,19.1801685 18.7507537,19.368 18.01475,19.368 C16.6040763,19.368 15.534587,18.938671 14.80625,18.08 C14.077913,17.221329 13.71375,16.0713405 13.71375,14.63 L13.71375,7.73 L15.82975,7.73 L15.82975,14.285 C15.82975,16.3856772 16.7574074,17.436 18.61275,17.436 C19.4867544,17.436 20.1997472,17.0833369 20.75175,16.378 C21.3037528,15.6726631 21.57975,14.8600046 21.57975,13.94 L21.57975,7.73 L23.69575,7.73 L23.69575,19 Z M30.4865,19.368 C29.2291604,19.368 28.1903374,19.0613364 27.37,18.448 C26.5496626,17.8346636 25.9478352,17.0680046 25.5645,16.148 L27.4505,15.366 C28.048503,16.7766737 29.0681595,17.482 30.5095,17.482 C31.1688366,17.482 31.7093312,17.3363348 32.131,17.045 C32.5526688,16.7536652 32.7635,16.3703357 32.7635,15.895 C32.7635,15.1589963 32.2498385,14.660668 31.2225,14.4 L28.9455,13.848 C28.2248297,13.6639991 27.5425032,13.3151692 26.8985,12.8015 C26.2544968,12.2878308 25.9325,11.5940044 25.9325,10.72 C25.9325,9.72332835 26.3733289,8.91450311 27.255,8.2935 C28.1366711,7.6724969 29.1831606,7.362 30.3945,7.362 C31.3911717,7.362 32.2804961,7.58816441 33.0625,8.0405 C33.8445039,8.4928356 34.404165,9.14066245 34.7415,9.984 L32.9015,10.743 C32.4874979,9.74632835 31.6288398,9.248 30.3255,9.248 C29.6968302,9.248 29.1678355,9.37833203 28.7385,9.639 C28.3091645,9.89966797 28.0945,10.2523311 28.0945,10.697 C28.0945,11.3410032 28.5928284,11.7779988 29.5895,12.008 L31.8205,12.537 C32.8785053,12.7823346 33.6604975,13.203997 34.1665,13.802 C34.6725025,14.400003 34.9255,15.0746629 34.9255,15.826 C34.9255,16.8380051 34.5115041,17.68133 33.6835,18.356 C32.8554959,19.03067 31.7898398,19.368 30.4865,19.368 Z M42.17625,19.368 C40.4895749,19.368 39.1019221,18.796839 38.01325,17.6545 C36.9245779,16.512161 36.38025,15.0823419 36.38025,13.365 C36.38025,11.6476581 36.9245779,10.217839 38.01325,9.0755 C39.1019221,7.93316096 40.4895749,7.362 42.17625,7.362 C43.4335896,7.362 44.4762459,7.6686636 45.30425,8.282 C46.1322541,8.8953364 46.7379148,9.66966199 47.12125,10.605 L45.18925,11.41 C44.6065804,9.99932628 43.5562576,9.294 42.03825,9.294 C41.102912,9.294 40.2787536,9.6773295 39.56575,10.444 C38.8527464,11.2106705 38.49625,12.1843274 38.49625,13.365 C38.49625,14.5456726 38.8527464,15.5193295 39.56575,16.286 C40.2787536,17.0526705 41.102912,17.436 42.03825,17.436 C43.6175912,17.436 44.706247,16.7306737 45.30425,15.32 L47.19025,16.125 C46.8069147,17.0450046 46.1897543,17.8154969 45.33875,18.4365 C44.4877457,19.0575031 43.4335896,19.368 42.17625,19.368 Z M51.175,19 L49.059,19 L49.059,7.73 L51.083,7.73 L51.083,9.57 L51.175,9.57 C51.3896677,8.9566636 51.8304967,8.45066866 52.4975,8.052 C53.1645033,7.65333134 53.8123302,7.454 54.441,7.454 C55.0696698,7.454 55.5986645,7.54599908 56.028,7.73 L55.223,9.708 C54.9469986,9.60066613 54.5713357,9.547 54.096,9.547 C53.3293295,9.547 52.6508363,9.84983031 52.0605,10.4555 C51.4701637,11.0611697 51.175,11.8546618 51.175,12.836 L51.175,19 Z M59.85175,19 L57.73575,19 L57.73575,7.73 L59.85175,7.73 L59.85175,19 Z M59.66775,5.476 L57.82775,5.476 L59.02375,2.532 L61.32375,2.532 L59.66775,5.476 Z M68.7125,19.368 C67.853829,19.368 67.0833367,19.1840018 66.401,18.816 C65.7186633,18.4479982 65.208835,17.9880028 64.8715,17.436 L64.7795,17.436 L64.7795,19 L62.7555,19 L62.7555,2.532 L64.8715,2.532 L64.8715,7.73 L64.7795,9.294 L64.8715,9.294 C65.208835,8.74199724 65.7186633,8.28200184 66.401,7.914 C67.0833367,7.54599816 67.853829,7.362 68.7125,7.362 C70.169174,7.362 71.4264947,7.93699425 72.4845,9.087 C73.5425053,10.2370057 74.0715,11.6629915 74.0715,13.365 C74.0715,15.0670085 73.5425053,16.4929942 72.4845,17.643 C71.4264947,18.7930057 70.169174,19.368 68.7125,19.368 Z M68.3675,17.436 C69.3488382,17.436 70.1921631,17.0641704 70.8975,16.3205 C71.6028369,15.5768296 71.9555,14.5916728 71.9555,13.365 C71.9555,12.1383272 71.6028369,11.1531704 70.8975,10.4095 C70.1921631,9.66582961 69.3488382,9.294 68.3675,9.294 C67.3708283,9.294 66.5236702,9.66199632 65.826,10.398 C65.1283298,11.1340037 64.7795,12.1229938 64.7795,13.365 C64.7795,14.6070062 65.1283298,15.5959963 65.826,16.332 C66.5236702,17.0680037 67.3708283,17.436 68.3675,17.436 Z M81.25325,19.368 C79.5512415,19.368 78.167422,18.8006723 77.10175,17.666 C76.036078,16.5313277 75.50325,15.0976753 75.50325,13.365 C75.50325,11.7243251 76.0207448,10.3136726 77.05575,9.133 C78.0907552,7.95232743 79.4132419,7.362 81.02325,7.362 C82.6945917,7.362 84.0324116,7.90632789 85.03675,8.995 C86.0410884,10.0836721 86.54325,11.5403242 86.54325,13.365 L86.52025,13.756 L77.61925,13.756 C77.6805836,14.8906723 78.0600798,15.7876634 78.75775,16.447 C79.4554202,17.1063366 80.271912,17.436 81.20725,17.436 C82.7252576,17.436 83.7525806,16.7920064 84.28925,15.504 L86.17525,16.286 C85.8072482,17.1600044 85.2015875,17.8921637 84.35825,18.4825 C83.5149124,19.0728363 82.4799228,19.368 81.25325,19.368 Z M84.28925,12.008 C84.2432498,11.3639968 83.9480861,10.7506696 83.40375,10.168 C82.8594139,9.58533042 82.0505887,9.294 80.97725,9.294 C80.1952461,9.294 79.5167529,9.53933088 78.94175,10.03 C78.3667471,10.5206691 77.9719177,11.1799959 77.75725,12.008 L84.28925,12.008 Z M93.15,19.184 C91.9693274,19.184 91.0685031,18.8696698 90.4475,18.241 C89.8264969,17.6123302 89.516,16.7230057 89.516,15.573 L89.516,9.662 L87.538,9.662 L87.538,7.73 L89.516,7.73 L89.516,4.28 L91.632,4.28 L91.632,7.73 L94.392,7.73 L94.392,9.662 L91.632,9.662 L91.632,15.412 C91.632,16.6386728 92.1379949,17.252 93.15,17.252 C93.5333353,17.252 93.855332,17.1906673 94.116,17.068 L94.852,18.885 C94.3919977,19.0843343 93.82467,19.184 93.15,19.184 Z M101.55075,19.368 C99.8487415,19.368 98.464922,18.8006723 97.39925,17.666 C96.333578,16.5313277 95.80075,15.0976753 95.80075,13.365 C95.80075,11.7243251 96.3182448,10.3136726 97.35325,9.133 C98.3882552,7.95232743 99.7107419,7.362 101.32075,7.362 C102.992092,7.362 104.329912,7.90632789 105.33425,8.995 C106.338588,10.0836721 106.84075,11.5403242 106.84075,13.365 L106.81775,13.756 L97.91675,13.756 C97.9780836,14.8906723 98.3575798,15.7876634 99.05525,16.447 C99.7529202,17.1063366 100.569412,17.436 101.50475,17.436 C103.022758,17.436 104.050081,16.7920064 104.58675,15.504 L106.47275,16.286 C106.104748,17.1600044 105.499088,17.8921637 104.65575,18.4825 C103.812412,19.0728363 102.777423,19.368 101.55075,19.368 Z M104.58675,12.008 C104.54075,11.3639968 104.245586,10.7506696 103.70125,10.168 C103.156914,9.58533042 102.348089,9.294 101.27475,9.294 C100.492746,9.294 99.8142529,9.53933088 99.23925,10.03 C98.6642471,10.5206691 98.2694177,11.1799959 98.05475,12.008 L104.58675,12.008 Z M119.27225,19.368 C117.585575,19.368 116.197922,18.796839 115.10925,17.6545 C114.020578,16.512161 113.47625,15.0823419 113.47625,13.365 C113.47625,11.6476581 114.020578,10.217839 115.10925,9.0755 C116.197922,7.93316096 117.585575,7.362 119.27225,7.362 C120.52959,7.362 121.572246,7.6686636 122.40025,8.282 C123.228254,8.8953364 123.833915,9.66966199 124.21725,10.605 L122.28525,11.41 C121.70258,9.99932628 120.652258,9.294 119.13425,9.294 C118.198912,9.294 117.374754,9.6773295 116.66175,10.444 C115.948746,11.2106705 115.59225,12.1843274 115.59225,13.365 C115.59225,14.5456726 115.948746,15.5193295 116.66175,16.286 C117.374754,17.0526705 118.198912,17.436 119.13425,17.436 C120.713591,17.436 121.802247,16.7306737 122.40025,15.32 L124.28625,16.125 C123.902915,17.0450046 123.285754,17.8154969 122.43475,18.4365 C121.583746,19.0575031 120.52959,19.368 119.27225,19.368 Z M127.144,9.087 C128.232672,7.93699425 129.620325,7.362 131.307,7.362 C132.993675,7.362 134.381328,7.93316096 135.47,9.0755 C136.558672,10.217839 137.103,11.6476581 137.103,13.365 C137.103,15.0823419 136.558672,16.512161 135.47,17.6545 C134.381328,18.796839 132.993675,19.368 131.307,19.368 C129.620325,19.368 128.232672,18.796839 127.144,17.6545 C126.055328,16.512161 125.511,15.0823419 125.511,13.365 C125.511,11.6476581 126.055328,10.2216723 127.144,9.087 Z M128.708,16.332 C129.444004,17.0680037 130.310328,17.436 131.307,17.436 C132.303672,17.436 133.166163,17.0641704 133.8945,16.3205 C134.622837,15.5768296 134.987,14.5916728 134.987,13.365 C134.987,12.1383272 134.622837,11.1531704 133.8945,10.4095 C133.166163,9.66582961 132.303672,9.294 131.307,9.294 C130.310328,9.294 129.447837,9.66582961 128.7195,10.4095 C127.991163,11.1531704 127.627,12.1383272 127.627,13.365 C127.627,14.5916728 127.98733,15.5806629 128.708,16.332 Z M140.97275,7.73 L140.97275,9.294 L141.06475,9.294 C141.371418,8.75733065 141.854413,8.30116854 142.51375,7.9255 C143.173087,7.54983145 143.878413,7.362 144.62975,7.362 C146.02509,7.362 147.090746,7.79132904 147.82675,8.65 C148.562754,9.50867096 148.93075,10.6586595 148.93075,12.1 L148.93075,19 L146.81475,19 L146.81475,12.422 C146.81475,10.3366562 145.887093,9.294 144.03175,9.294 C143.157746,9.294 142.444753,9.64282985 141.89275,10.3405 C141.340747,11.0381702 141.06475,11.8469954 141.06475,12.767 L141.06475,19 L138.94875,19 L138.94875,7.73 L140.97275,7.73 Z" id="Suscríbete-con" fill="#FFFFFF"></path>
        <g id="Group" transform="translate(157.000000, 0.000000)" fill="#FFFFFF" fill-rule="nonzero">
            <path d="M9.36714443,19 C4.27673649,19 0,14.7346939 0,9.5 C0,4.26530612 4.27673649,0 9.36714443,0 C12.185226,0 14.1896362,1.13265306 15.6979052,2.62244898 L13.92172,4.44897959 C12.8401323,3.40816327 11.3715546,2.59183673 9.36714443,2.59183673 C5.646086,2.59183673 2.73869901,5.67346939 2.73869901,9.5 C2.73869901,13.3265306 5.646086,16.4081633 9.36714443,16.4081633 C11.7783903,16.4081633 13.1477398,15.4081633 14.030871,14.5102041 C14.755237,13.7653061 15.2216097,12.7040816 15.4002205,11.244898 L9.36714443,11.244898 L9.36714443,8.64285714 L17.8610805,8.64285714 C17.9503859,9.10204082 18,9.66326531 18,10.2653061 C18,12.2142857 17.4840132,14.622449 15.8169791,16.3367347 C14.1896362,18.0714286 12.1256891,19 9.36714443,19 Z" id="Shape"></path>
            <path d="M32,13 C32,16.4557596 29.3096447,19 26,19 C22.6903553,19 20,16.4557596 20,13 C20,9.52420701 22.6903553,7 26,7 C29.3096447,7 32,9.52420701 32,13 Z M29.3705584,13 C29.3705584,10.836394 27.8071066,9.3639399 26,9.3639399 C24.1928934,9.3639399 22.6294416,10.8464107 22.6294416,13 C22.6294416,15.1335559 24.1928934,16.6360601 26,16.6360601 C27.8071066,16.6360601 29.3705584,15.1435726 29.3705584,13 Z" id="Shape"></path>
            <path d="M45,13 C45,16.4557596 42.3096447,19 39,19 C35.7005076,19 33,16.4557596 33,13 C33,9.52420701 35.6903553,7 39,7 C42.3096447,7 45,9.52420701 45,13 Z M42.3807107,13 C42.3807107,10.836394 40.8172589,9.3639399 39.0101523,9.3639399 C37.2030457,9.3639399 35.6395939,10.8464107 35.6395939,13 C35.6395939,15.1335559 37.2030457,16.6360601 39.0101523,16.6360601 C40.8172589,16.6460768 42.3807107,15.1435726 42.3807107,13 Z" id="Shape"></path>
            <path d="M57,7.3621186 L57,17.8929188 C57,22.228555 54.5013055,24 51.5430809,24 C48.7571802,24 47.0913838,22.0915371 46.45953,20.5354059 L48.6518712,19.6056419 C49.0443864,20.5647668 50.0017406,21.6902706 51.5430809,21.6902706 C53.4386423,21.6902706 54.6066144,20.4864709 54.6066144,18.2452504 L54.6066144,17.4035694 L54.5204526,17.4035694 C53.9556136,18.1180196 52.8642298,18.7345999 51.4952132,18.7345999 C48.6231506,18.7345999 46,16.1801957 46,12.8917674 C46,9.58376511 48.6327241,7 51.4952132,7 C52.8642298,7 53.9556136,7.6263673 54.5204526,8.31145653 L54.6066144,8.31145653 L54.6066144,7.3621186 L57,7.3621186 Z M54.7789382,12.9015544 C54.7789382,10.8364997 53.4290688,9.31951641 51.7154047,9.31951641 C49.97302,9.31951641 48.5178416,10.8267127 48.5178416,12.9015544 C48.5178416,14.9470351 49.97302,16.4346575 51.7154047,16.4346575 C53.4290688,16.4346575 54.7789382,14.9470351 54.7789382,12.9015544 Z" id="Shape"></path>
            <polygon id="Shape" points="63 1 63 19 60 19 60 1"></polygon>
            <path d="M72.8441203,14.9732888 L74.8896992,16.3355593 C74.2278943,17.3171953 72.633546,19 69.8760255,19 C66.4567001,19 64,16.3656093 64,13 C64,9.43405676 66.4867821,7 69.5852325,7 C72.7037375,7 74.2278943,9.47412354 74.7292616,10.8163606 L75,11.4974958 L66.9680948,14.8230384 C67.579763,16.0250417 68.5423883,16.6460768 69.8860529,16.6460768 C71.2297174,16.6460768 72.1622607,15.9749583 72.8441203,14.9732888 Z M66.5369189,12.8096828 L71.911577,10.5859766 C71.6107566,9.83472454 70.72835,9.31385643 69.6754786,9.31385643 C68.331814,9.31385643 66.4667274,10.4958264 66.5369189,12.8096828 Z" id="Shape"></path>
        </g>
    </g>
</svg>

<svg width="232" height="24" viewBox="0 0 232 24" xmlns="http://www.w3.org/2000/svg"><title>SwG-Spanish-Black</title><desc>Created with Sketch.</desc><g fill="none"><path d="M6.302 19.368c-1.196 0-2.365-.391-3.507-1.173s-1.89-1.878-2.243-3.289l1.932-.782c.23.905.701 1.667 1.414 2.289.713.621 1.514.931 2.403.931.92 0 1.706-.241 2.357-.725.652-.483.978-1.138.978-1.966 0-.92-.326-1.629-.978-2.128-.652-.498-1.683-.962-3.093-1.391-1.457-.46-2.561-1.054-3.312-1.783-.751-.728-1.127-1.66-1.127-2.794 0-1.181.468-2.208 1.403-3.082.935-.874 2.154-1.311 3.657-1.311 1.395 0 2.53.349 3.404 1.046.874.698 1.441 1.46 1.702 2.288l-1.932.805c-.138-.521-.479-1.004-1.024-1.449-.544-.445-1.246-.667-2.105-.667-.813 0-1.506.226-2.081.679-.575.452-.863 1.016-.863 1.691 0 .613.264 1.131.793 1.553.529.422 1.307.801 2.335 1.138.813.261 1.491.514 2.036.759.544.245 1.096.571 1.656.978.56.406.981.912 1.265 1.518.284.606.425 1.307.425 2.104 0 .797-.165 1.51-.494 2.139-.33.629-.767 1.127-1.311 1.495-.544.368-1.131.648-1.759.84-.629.192-1.273.287-1.932.287zm17.394-.368h-2.024v-1.564h-.092c-.322.537-.813.993-1.472 1.369s-1.357.563-2.093.563c-1.411 0-2.48-.429-3.208-1.288-.728-.859-1.093-2.009-1.093-3.45v-6.9h2.116v6.555c0 2.101.928 3.151 2.783 3.151.874 0 1.587-.353 2.139-1.058.552-.705.828-1.518.828-2.438v-6.21h2.116v11.27zm6.791.368c-1.257 0-2.296-.307-3.116-.92-.82-.613-1.422-1.38-1.806-2.3l1.886-.782c.598 1.411 1.618 2.116 3.059 2.116.659 0 1.2-.146 1.622-.437.422-.291.633-.675.633-1.15 0-.736-.514-1.234-1.541-1.495l-2.277-.552c-.721-.184-1.403-.533-2.047-1.046-.644-.514-.966-1.207-.966-2.082 0-.997.441-1.805 1.322-2.427.882-.621 1.928-.931 3.14-.931.997 0 1.886.226 2.668.678.782.452 1.342 1.1 1.679 1.944l-1.84.759c-.414-.997-1.273-1.495-2.576-1.495-.629 0-1.158.13-1.587.391-.429.261-.644.613-.644 1.058 0 .644.498 1.081 1.495 1.311l2.231.529c1.058.245 1.84.667 2.346 1.265.506.598.759 1.273.759 2.024 0 1.012-.414 1.855-1.242 2.53-.828.675-1.894 1.012-3.197 1.012zm11.69 0c-1.687 0-3.074-.571-4.163-1.713-1.089-1.142-1.633-2.572-1.633-4.289 0-1.717.544-3.147 1.633-4.29 1.089-1.142 2.476-1.713 4.163-1.713 1.257 0 2.3.307 3.128.92.828.613 1.434 1.388 1.817 2.323l-1.932.805c-.583-1.411-1.633-2.116-3.151-2.116-.935 0-1.759.383-2.472 1.15-.713.767-1.069 1.74-1.069 2.921 0 1.181.356 2.154 1.069 2.921.713.767 1.537 1.15 2.472 1.15 1.579 0 2.668-.705 3.266-2.116l1.886.805c-.383.92-1 1.69-1.852 2.311-.851.621-1.905.931-3.162.931zm8.999-.368h-2.116v-11.27h2.024v1.84h.092c.215-.613.655-1.119 1.323-1.518.667-.399 1.315-.598 1.944-.598s1.158.092 1.587.276l-.805 1.978c-.276-.107-.652-.161-1.127-.161-.767 0-1.445.303-2.035.909-.59.606-.886 1.399-.886 2.38v6.164zm8.677 0h-2.116v-11.27h2.116v11.27zm-.184-13.524h-1.84l1.196-2.944h2.3l-1.656 2.944zm9.045 13.892c-.859 0-1.629-.184-2.312-.552-.682-.368-1.192-.828-1.529-1.38h-.092v1.564h-2.024v-16.468h2.116v5.198l-.092 1.564h.092c.337-.552.847-1.012 1.529-1.38.682-.368 1.453-.552 2.312-.552 1.457 0 2.714.575 3.772 1.725 1.058 1.15 1.587 2.576 1.587 4.278 0 1.702-.529 3.128-1.587 4.278-1.058 1.15-2.315 1.725-3.772 1.725zm-.345-1.932c.981 0 1.825-.372 2.53-1.116.705-.744 1.058-1.729 1.058-2.955 0-1.227-.353-2.212-1.058-2.956-.705-.744-1.549-1.115-2.53-1.115-.997 0-1.844.368-2.542 1.104-.698.736-1.046 1.725-1.046 2.967s.349 2.231 1.046 2.967c.698.736 1.545 1.104 2.542 1.104zm12.886 1.932c-1.702 0-3.086-.567-4.151-1.702-1.066-1.135-1.599-2.568-1.599-4.301 0-1.641.517-3.051 1.553-4.232 1.035-1.181 2.357-1.771 3.968-1.771 1.671 0 3.009.544 4.013 1.633s1.507 2.545 1.507 4.37l-.023.391h-8.901c.061 1.135.441 2.032 1.139 2.691.698.659 1.514.989 2.45.989 1.518 0 2.545-.644 3.082-1.932l1.886.782c-.368.874-.974 1.606-1.817 2.197-.843.59-1.878.885-3.105.885zm3.036-7.36c-.046-.644-.341-1.257-.885-1.84-.544-.583-1.353-.874-2.427-.874-.782 0-1.46.245-2.035.736-.575.491-.97 1.15-1.184 1.978h6.532zm8.861 7.176c-1.181 0-2.081-.314-2.703-.943-.621-.629-.931-1.518-.931-2.668v-5.911h-1.978v-1.932h1.978v-3.45h2.116v3.45h2.76v1.932h-2.76v5.75c0 1.227.506 1.84 1.518 1.84.383 0 .705-.061.966-.184l.736 1.817c-.46.199-1.027.299-1.702.299zm8.401.184c-1.702 0-3.086-.567-4.151-1.702-1.066-1.135-1.599-2.568-1.599-4.301 0-1.641.517-3.051 1.553-4.232 1.035-1.181 2.357-1.771 3.968-1.771 1.671 0 3.009.544 4.013 1.633s1.507 2.545 1.507 4.37l-.023.391h-8.901c.061 1.135.441 2.032 1.139 2.691.698.659 1.514.989 2.45.989 1.518 0 2.545-.644 3.082-1.932l1.886.782c-.368.874-.974 1.606-1.817 2.197-.843.59-1.878.885-3.105.885zm3.036-7.36c-.046-.644-.341-1.257-.885-1.84-.544-.583-1.353-.874-2.427-.874-.782 0-1.46.245-2.035.736-.575.491-.97 1.15-1.184 1.978h6.532zm14.686 7.36c-1.687 0-3.074-.571-4.163-1.713-1.089-1.142-1.633-2.572-1.633-4.289 0-1.717.544-3.147 1.633-4.29 1.089-1.142 2.476-1.713 4.163-1.713 1.257 0 2.3.307 3.128.92.828.613 1.434 1.388 1.817 2.323l-1.932.805c-.583-1.411-1.633-2.116-3.151-2.116-.935 0-1.759.383-2.472 1.15-.713.767-1.069 1.74-1.069 2.921 0 1.181.356 2.154 1.069 2.921.713.767 1.537 1.15 2.472 1.15 1.579 0 2.668-.705 3.266-2.116l1.886.805c-.383.92-1 1.69-1.852 2.311-.851.621-1.905.931-3.162.931zm7.872-10.281c1.089-1.15 2.476-1.725 4.163-1.725 1.687 0 3.074.571 4.163 1.713 1.089 1.142 1.633 2.572 1.633 4.29 0 1.717-.544 3.147-1.633 4.289s-2.476 1.713-4.163 1.713c-1.687 0-3.074-.571-4.163-1.713-1.089-1.142-1.633-2.572-1.633-4.289 0-1.717.544-3.143 1.633-4.278zm1.564 7.245c.736.736 1.602 1.104 2.599 1.104.997 0 1.859-.372 2.588-1.116.728-.744 1.093-1.729 1.093-2.955 0-1.227-.364-2.212-1.093-2.956-.728-.744-1.591-1.115-2.588-1.115-.997 0-1.859.372-2.587 1.115-.728.744-1.093 1.729-1.093 2.956 0 1.227.36 2.216 1.081 2.967zm12.265-8.602v1.564h.092c.307-.537.79-.993 1.449-1.369s1.365-.564 2.116-.564c1.395 0 2.461.429 3.197 1.288.736.859 1.104 2.009 1.104 3.45v6.9h-2.116v-6.578c0-2.085-.928-3.128-2.783-3.128-.874 0-1.587.349-2.139 1.046-.552.698-.828 1.506-.828 2.426v6.233h-2.116v-11.27h2.024z" fill="#fff"/><g fill-rule="nonzero"><path d="M166.367 19c-5.09 0-9.367-4.265-9.367-9.5s4.277-9.5 9.367-9.5c2.818 0 4.822 1.133 6.331 2.622l-1.776 1.827c-1.082-1.041-2.55-1.857-4.555-1.857-3.721 0-6.628 3.082-6.628 6.908 0 3.827 2.907 6.908 6.628 6.908 2.411 0 3.781-1 4.664-1.898.724-.745 1.191-1.806 1.369-3.265h-6.033v-2.602h8.494c.089.459.139 1.02.139 1.622 0 1.949-.516 4.357-2.183 6.071-1.627 1.735-3.691 2.663-6.45 2.663z" id="Shape" fill="#4285F4"/><path d="M189 13c0 3.456-2.69 6-6 6s-6-2.544-6-6c0-3.476 2.69-6 6-6s6 2.524 6 6zm-2.629 0c0-2.164-1.563-3.636-3.371-3.636-1.807 0-3.371 1.482-3.371 3.636 0 2.134 1.563 3.636 3.371 3.636 1.807 0 3.371-1.492 3.371-3.636z" id="Shape" fill="#E94235"/><path d="M202 13c0 3.456-2.69 6-6 6-3.299 0-6-2.544-6-6 0-3.476 2.69-6 6-6s6 2.524 6 6zm-2.619 0c0-2.164-1.563-3.636-3.371-3.636-1.807 0-3.371 1.482-3.371 3.636 0 2.134 1.563 3.636 3.371 3.636 1.807.01 3.371-1.492 3.371-3.636z" id="Shape" fill="#FABB05"/><path d="M214 7.362v10.531c0 4.336-2.499 6.107-5.457 6.107-2.786 0-4.452-1.908-5.084-3.465l2.192-.93c.393.959 1.35 2.085 2.891 2.085 1.896 0 3.064-1.204 3.064-3.445v-.842h-.086c-.565.714-1.656 1.331-3.025 1.331-2.872 0-5.495-2.554-5.495-5.843 0-3.308 2.633-5.892 5.495-5.892 1.369 0 2.46.626 3.025 1.311h.086v-.949h2.393zm-2.221 5.539c0-2.065-1.35-3.582-3.064-3.582-1.742 0-3.198 1.507-3.198 3.582 0 2.045 1.455 3.533 3.198 3.533 1.714 0 3.064-1.488 3.064-3.533z" id="Shape" fill="#4285F4"/><path id="Shape" fill="#34A853" d="M220 1v18h-3v-18z"/><path d="M229.844 14.973l2.046 1.362c-.662.982-2.256 2.664-5.014 2.664-3.419 0-5.876-2.634-5.876-6 0-3.566 2.487-6 5.585-6 3.119 0 4.643 2.474 5.144 3.816l.271.681-8.032 3.326c.612 1.202 1.574 1.823 2.918 1.823s2.276-.671 2.958-1.673zm-6.307-2.164l5.375-2.224c-.301-.751-1.183-1.272-2.236-1.272-1.344 0-3.209 1.182-3.139 3.496z" fill="#E94235"/></g></g></svg>
